X:1
T:The Duchess of Gordon
T:The Duchess of Gordon
T:Donald Dow
C:Donald Dow
L:1/8
Q:1/8=128
M:4/4
K:E
V:1 treble 
V:1
|: c | B<E B>G BE E<e | B<E B>G FA A>c | B<E B>e c>e B>c | B>G Ba g<e ec | B<E B>G BE E<e | %6
 B<E B>G FA A>c | B<E B>e c>e B>c | B>G Ba g<e eg | e>B G<B EB e>c | B<E B>G Ff f>g | %11
 e>B G>B FB E>g | e<c B>G B<e e>g | e>B G<B EB e>c | B<E B>G Fa g>f | g<b f<g e>c BG | %16
 B>c e>f gee :| %17

